X: 14780
T: Gan Ainm
R: polka
M: 2/4
K: Gmajor
BB/d/ cc/e/|dd/g/ B2|cc/e/ AG|G/F/G/B/ D2|
BB/d/ cc/e/|dd/g/ B2|cc/e/ dF|GB G z||
G/B/d/g/ fB|ce e2|F/A/c/e/ dF|Gg g2|
G/B/d/g/ fB|ce e2|F/A/c/e/ d/c/E/F/|GG G z||

